src/images/graph-ql-logo.svg

<svg width="506" height="506" fill="none" xmlns="http://www.w3.org/2000/svg"><path d="M96.352 347.16l14.376 8.3 160.15-277.38-14.376-8.3-160.15 277.38z" fill="#E535AB"/><path d="M413.36 325H93.06v16.6h320.3V325z" fill="#E535AB"/><path d="M99.398 334.326l160.21 92.5 8.3-14.376-160.21-92.5-8.3 14.376zM238.572 93.247l160.21 92.5 8.3-14.376-160.21-92.5-8.3 14.376z" fill="#E535AB"/><path d="M99.442 171.308l8.3 14.376 160.21-92.5-8.3-14.376-160.21 92.5z" fill="#E535AB"/><path d="M235.678 78.083l160.15 277.38 14.376-8.3-160.15-277.38-14.376 8.3zM122.36 160.3h-16.6v185h16.6v-185z" fill="#E535AB"/><path d="M400.76 160.3h-16.6v185h16.6v-185z" fill="#E535AB"/><path d="M249.532 407.242l7.25 12.557 139.339-80.45-7.25-12.557-139.339 80.45z" fill="#E535AB"/><path d="M422.76 350.7c-9.6 16.7-31 22.4-47.7 12.8-16.7-9.6-22.4-31-12.8-47.7 9.6-16.7 31-22.4 47.7-12.8 16.8 9.7 22.5 31 12.8 47.7zM144.16 189.8c-9.6 16.7-31 22.4-47.7 12.8-16.7-9.6-22.4-31-12.8-47.7 9.6-16.7 31-22.4 47.7-12.8 16.7 9.7 22.4 31 12.8 47.7zM83.76 350.7c-9.6-16.7-3.9-38 12.8-47.7 16.7-9.6 38-3.9 47.7 12.8 9.6 16.7 3.9 38-12.8 47.7-16.8 9.6-38.1 3.9-47.7-12.8zM362.36 189.8c-9.6-16.7-3.9-38 12.8-47.7 16.7-9.6 38-3.9 47.7 12.8 9.6 16.7 3.9 38-12.8 47.7-16.7 9.6-38.1 3.9-47.7-12.8zM253.26 448.6c-19.3 0-34.9-15.6-34.9-34.9 0-19.3 15.6-34.9 34.9-34.9 19.3 0 34.9 15.6 34.9 34.9 0 19.2-15.6 34.9-34.9 34.9zM253.26 126.8c-19.3 0-34.9-15.6-34.9-34.9 0-19.3 15.6-34.9 34.9-34.9 19.3 0 34.9 15.6 34.9 34.9 0 19.3-15.6 34.9-34.9 34.9z" fill="#E535AB"/></svg>

<svg width="506" height="506" viewBox="0 0 506 506" fill="none" xmlns="http://www.w3.org/2000/svg">
<path d="M96.3521 347.16L110.728 355.46L270.878 78.0802L256.502 69.7802L96.3521 347.16Z" fill="#E535AB"/>
<path d="M413.36 325H93.0601V341.6H413.36V325Z" fill="#E535AB"/>
<path d="M99.398 334.326L259.608 426.826L267.908 412.45L107.698 319.95L99.398 334.326Z" fill="#E535AB"/>
<path d="M238.572 93.2467L398.782 185.747L407.082 171.371L246.872 78.8711L238.572 93.2467Z" fill="#E535AB"/>
<path d="M99.4424 171.308L107.742 185.684L267.952 93.1835L259.652 78.8079L99.4424 171.308Z" fill="#E535AB"/>
<path d="M235.678 78.0832L395.828 355.463L410.204 347.163L250.054 69.7832L235.678 78.0832Z" fill="#E535AB"/>
<path d="M122.36 160.3H105.76V345.3H122.36V160.3Z" fill="#E535AB"/>
<path d="M400.76 160.3H384.16V345.3H400.76V160.3Z" fill="#E535AB"/>
<path d="M249.532 407.242L256.782 419.799L396.121 339.349L388.871 326.792L249.532 407.242Z" fill="#E535AB"/>
<path d="M422.76 350.7C413.16 367.4 391.76 373.1 375.06 363.5C358.36 353.9 352.66 332.5 362.26 315.8C371.86 299.1 393.26 293.4 409.96 303C426.76 312.7 432.46 334 422.76 350.7Z" fill="#E535AB"/>
<path d="M144.16 189.8C134.56 206.5 113.16 212.2 96.4601 202.6C79.7601 193 74.0601 171.6 83.6601 154.9C93.2601 138.2 114.66 132.5 131.36 142.1C148.06 151.8 153.76 173.1 144.16 189.8Z" fill="#E535AB"/>
<path d="M83.76 350.7C74.16 334 79.86 312.7 96.56 303C113.26 293.4 134.56 299.1 144.26 315.8C153.86 332.5 148.16 353.8 131.46 363.5C114.66 373.1 93.36 367.4 83.76 350.7Z" fill="#E535AB"/>
<path d="M362.36 189.8C352.76 173.1 358.46 151.8 375.16 142.1C391.86 132.5 413.16 138.2 422.86 154.9C432.46 171.6 426.76 192.9 410.06 202.6C393.36 212.2 371.96 206.5 362.36 189.8Z" fill="#E535AB"/>
<path d="M253.26 448.6C233.96 448.6 218.36 433 218.36 413.7C218.36 394.4 233.96 378.8 253.26 378.8C272.56 378.8 288.16 394.4 288.16 413.7C288.16 432.9 272.56 448.6 253.26 448.6Z" fill="#E535AB"/>
<path d="M253.26 126.8C233.96 126.8 218.36 111.2 218.36 91.9C218.36 72.6 233.96 57 253.26 57C272.56 57 288.16 72.6 288.16 91.9C288.16 111.2 272.56 126.8 253.26 126.8Z" fill="#E535AB"/>
</svg>
